antibot/app/images/dist/adv-img1.svg

<svg width="33" height="33" viewBox="0 0 33 33" fill="none" xmlns="http://www.w3.org/2000/svg">
<path d="M27.8118 10.2095L29.0626 7.4387L31.8334 6.18786C31.9716 6.12489 32.0888 6.02349 32.171 5.89575C32.2532 5.76801 32.2969 5.61933 32.2969 5.46745C32.2969 5.31556 32.2532 5.16688 32.171 5.03914C32.0888 4.91141 31.9716 4.81 31.8334 4.74703L29.0626 3.4962L27.8118 0.709529C27.7488 0.571313 27.6474 0.45413 27.5197 0.371958C27.3919 0.289786 27.2432 0.246094 27.0913 0.246094C26.9395 0.246094 26.7908 0.289786 26.663 0.371958C26.5353 0.45413 26.4339 0.571313 26.3709 0.709529L25.1201 3.48036L22.3334 4.7312C22.1952 4.79417 22.078 4.89557 21.9959 5.02331C21.9137 5.15105 21.87 5.29973 21.87 5.45161C21.87 5.6035 21.9137 5.75218 21.9959 5.87991C22.078 6.00765 22.1952 6.10906 22.3334 6.17203L25.1043 7.42286L26.3551 10.2095C26.6401 10.827 27.5268 10.827 27.8118 10.2095ZM15.2084 12.5845L12.6909 7.04286C12.1368 5.80786 10.3634 5.80786 9.80927 7.04286L7.29177 12.5845L1.7501 15.102C0.515103 15.672 0.515103 17.4295 1.7501 17.9837L7.29177 20.5012L9.80927 26.0429C10.3793 27.2779 12.1368 27.2779 12.6909 26.0429L15.2084 20.5012L20.7501 17.9837C21.9851 17.4137 21.9851 15.6562 20.7501 15.102L15.2084 12.5845ZM26.3551 22.8762L25.1043 25.647L22.3334 26.8979C22.1952 26.9608 22.078 27.0622 21.9959 27.19C21.9137 27.3177 21.87 27.4664 21.87 27.6183C21.87 27.7702 21.9137 27.9188 21.9959 28.0466C22.078 28.1743 22.1952 28.2757 22.3334 28.3387L25.1043 29.5895L26.3551 32.3762C26.4181 32.5144 26.5195 32.6316 26.6472 32.7138C26.775 32.7959 26.9236 32.8396 27.0755 32.8396C27.2274 32.8396 27.3761 32.7959 27.5038 32.7138C27.6316 32.6316 27.733 32.5144 27.7959 32.3762L29.0468 29.6054L31.8334 28.3545C31.9716 28.2916 32.0888 28.1902 32.171 28.0624C32.2532 27.9347 32.2969 27.786 32.2969 27.6341C32.2969 27.4822 32.2532 27.3335 32.171 27.2058C32.0888 27.0781 31.9716 26.9767 31.8334 26.9137L29.0626 25.6629L27.8118 22.8762C27.7469 22.7378 27.644 22.6207 27.515 22.5387C27.386 22.4567 27.2363 22.4132 27.0834 22.4132C26.9306 22.4132 26.7809 22.4567 26.6519 22.5387C26.5229 22.6207 26.42 22.7378 26.3551 22.8762Z" fill="#0085FF"/>
</svg>

<svg width="33" height="33" fill="none" xmlns="http://www.w3.org/2000/svg"><path d="m27.812 10.21 1.25-2.771 2.771-1.251a.792.792 0 0 0 0-1.441l-2.77-1.25L27.812.71a.792.792 0 0 0-1.441 0l-1.25 2.77-2.788 1.251a.791.791 0 0 0 0 1.441l2.771 1.25 1.251 2.788c.285.617 1.172.617 1.457 0Zm-12.604 2.374-2.517-5.541c-.554-1.235-2.328-1.235-2.882 0l-2.517 5.542-5.542 2.517c-1.235.57-1.235 2.328 0 2.882L7.292 20.5l2.517 5.542c.57 1.235 2.328 1.235 2.882 0l2.517-5.542 5.542-2.517c1.235-.57 1.235-2.328 0-2.882l-5.542-2.518Zm11.147 10.292-1.25 2.771-2.772 1.25a.79.79 0 0 0 0 1.442l2.771 1.25 1.251 2.787a.792.792 0 0 0 1.44 0l1.252-2.77 2.786-1.252a.791.791 0 0 0 0-1.44l-2.77-1.251-1.251-2.787a.805.805 0 0 0-1.457 0Z" fill="#0085FF"/></svg>
